build/documents/ScanOutline.svg

<svg xmlns="http://www.w3.org/2000/svg" fill="none" viewBox="0 0 24 24" focusable="false"><path d="M0 0H24V24H0z"/><path fill="#74767B" fill-rule="evenodd" d="M13.4949 4.3L7.00002 4.3C6.06114 4.3 5.30002 5.06112 5.30002 6L5.30002 11.35L18.7 11.35L18.7 9.29679C18.7 9.19632 18.6911 9.0968 18.6738 8.99928L15.9528 8.99929C14.8758 8.99929 14.0028 8.12625 14.0028 7.04929L14.0028 4.37763C13.8398 4.3266 13.6687 4.3 13.4949 4.3ZM15.3028 5.36659L15.3028 7.04929C15.3028 7.40827 15.5938 7.69929 15.9528 7.69929L17.7829 7.69929L15.3028 5.36659ZM20 11.35L20 9.29679C20 8.46926 19.6582 7.67849 19.0554 7.11153L15.5503 3.81474C14.9939 3.29139 14.2588 3 13.4949 3L7.00002 3C5.34317 3 4.00002 4.34315 4.00002 6L4.00002 11.35L2.60923 11.35C2.25024 11.35 1.95923 11.641 1.95923 12C1.95923 12.359 2.25024 12.65 2.60923 12.65L21.3909 12.65C21.7499 12.65 22.0409 12.359 22.0409 12C22.0409 11.641 21.7499 11.35 21.3909 11.35L20 11.35ZM4.65002 13.9444C5.00901 13.9444 5.30002 14.2355 5.30002 14.5944L5.30002 18C5.30002 18.9389 6.06114 19.7 7.00002 19.7L17 19.7C17.9389 19.7 18.7 18.9389 18.7 18L18.7 14.5944C18.7 14.2355 18.991 13.9444 19.35 13.9444C19.709 13.9444 20 14.2355 20 14.5944L20 18C20 19.6569 18.6569 21 17 21L7.00002 21C5.34317 21 4.00002 19.6569 4.00002 18L4.00002 14.5944C4.00002 14.2355 4.29104 13.9444 4.65002 13.9444Z"/></svg>

<svg xmlns="http://www.w3.org/2000/svg" fill="none" viewBox="0 0 24 24" focusable="false"><path fill="#74767B" fill-rule="evenodd" d="M13.49 4.3H7c-.94 0-1.7.76-1.7 1.7v5.35h13.4V9.29q0-.15-.03-.3h-2.72c-1.08 0-1.95-.87-1.95-1.95V4.37c-.17-.05-.34-.07-.51-.07m1.81 1.06v1.68c0 .36.29.65.65.65h1.83zm4.7 5.99V9.29c0-.83-.35-1.62-.95-2.18l-3.5-3.3c-.56-.52-1.3-.81-2.06-.81H7C5.34 3 4 4.34 4 6v5.35H2.6c-.35 0-.65.29-.65.65 0 .35.3.65.65.65h18.79c.35 0 .65-.3.65-.65 0-.36-.3-.65-.65-.65zM4.64 13.94c.36 0 .66.29.66.65V18c0 .93.76 1.7 1.7 1.7h10c.93 0 1.7-.77 1.7-1.7v-3.41c0-.36.29-.65.65-.65.35 0 .65.29.65.65V18c0 1.65-1.35 3-3 3H7c-1.66 0-3-1.35-3-3v-3.41c0-.36.29-.65.64-.65"/></svg>
